X:1
T:Gavotte
T:GAVOTTE
T:GAVOTTE
T:Bach
T:Arr. Christophe Baste
C:Bach
%%score ( 1 2 )
L:1/8
Q:1/4=100
M:2/2
K:C
V:1 treble-8 nm="Guitare classique" snm="Guit."
V:2 treble-8 
V:1
 a2 c'b | c'2 ae b2 ^ge | a4 f2 dB | e2 cA dB e2 | c2 BA a2 c'b | c'2 ae b2 ^ge | a3 g fedc | %7
 !4!b!4!c'ef gd e2 |1[M:2/4] c4 :|2 c4 |: e2 gf |[M:4/4] g2 ec a2 fc | g4 c'bab | c'a^fd c'bab | %14
 c'bag ag^fg | a^f^dB agfg | ag^fe b2 b2 | b8- | bgab c'bag | ^fe_e=e agfg | e4 e2 gf | z8 | %22
 f2 dA a2 fd | e2 cA a2 ec | d2 B^G f2 dB | e2 cA dBcA | BE^F^G ABcA | fdec dBcA | B2 E2 A2 cB | %29
 c^GAE ^cGAE | dEFB dAeA | f^cdA ^f=cdA | gABd ^gdad | b^f^ge c'gae | d'bed' c'ba^g | aefd c2 BA | %36
[M:1/2] A4 :| %37
V:2
 A,2 E2 | A,2 C2 D2 E2 | FGFE DCB,D | CB,A,C B,A,^G,E | A,2 E2 C2 E2 | A,2 C2 D2 E2 | FGFE DCB,A, | %7
 !1!G,2 A,2 F,2 G,2 |1[M:2/4] CD CB, :|2 CG, A,B, |: C2 D2 |[M:4/4] E2 C2 F2 D2 | EDCB, A,2 G,2 | %13
 ^F2 D2 E2 F2 | G2 AB c2 A2 | ^F2 B,2 ^C2 ^D2 | E2 E2 E2 G^F | G2 EB, ^F2 ^DB, | E4 A,2 B,2 | %19
 C2 A,2 B,2 B,2 | E,E,F,G, A,2 A,2 | A,8 | A,4 A,2 A,2 | A,4 A,2 A,2 | A,4 A,A,A,A, | %25
 A,A,A,A, A,^G, A,2 | E2 D2 C2 E2 | ^G,2 E2 A,2 E2 | E2 ED C2 B,2 | A,2 z2 G,2 z2 | %30
 F,2 A,G, F,2 E,2 | D2 z2 C2 z2 | B,2 DC B,2 A,2 | ^G2 z2 F2 z2 | E2 ^G2 A2 B2 | C2 D2 E2 E,2 | %36
[M:1/2] A,4 :| %37

